build/img/vk.svg

<svg width="25" height="25" viewBox="0 0 25 25" fill="none" xmlns="http://www.w3.org/2000/svg">
<rect x="0.5" y="0.5" width="24" height="24" rx="12" fill="#010914" stroke="white"/>
<path d="M13.1141 16.875C8.41622 16.875 5.73665 13.5905 5.625 8.125H7.97822C8.05551 12.1365 9.79037 13.8357 11.1645 14.1861V8.125H13.3803V11.5847C14.7373 11.4358 16.1629 9.85923 16.6439 8.125H18.8597C18.6785 9.02442 18.3172 9.87603 17.7985 10.6266C17.2798 11.3771 16.6148 12.0104 15.8452 12.4869C16.7043 12.9222 17.4631 13.5384 18.0716 14.2948C18.68 15.0512 19.1243 15.9306 19.375 16.875H16.9359C16.7108 16.0548 16.2534 15.3205 15.6209 14.7643C14.9884 14.208 14.209 13.8545 13.3803 13.7481V16.875H13.1141Z" fill="white"/>
</svg>

<svg width="25" height="25" fill="none" xmlns="http://www.w3.org/2000/svg"><rect x=".5" y=".5" width="24" height="24" rx="12" fill="#010914" stroke="#fff"/><path d="M13.114 16.875c-4.698 0-7.377-3.284-7.489-8.75h2.353c.078 4.011 1.812 5.71 3.187 6.061V8.125h2.215v3.46c1.357-.15 2.783-1.726 3.264-3.46h2.216a6.743 6.743 0 01-1.061 2.502 6.6 6.6 0 01-1.954 1.86 6.809 6.809 0 012.227 1.808 6.97 6.97 0 011.303 2.58h-2.44a4.338 4.338 0 00-1.314-2.11 4.203 4.203 0 00-2.24-1.017v3.127h-.267z" fill="#fff"/></svg>
